X:032
T:Sheriff's Ride - Litchfield
M:4/4
L:1/8
K:Em
BA | G2 E2 E2 FG | AG F2 E4 | e2 e2 e2 fe | d2 B2 B4 |
d2 d2 e4 | dc B2 A4 | EF GA BA GF | G2 E2 E4 ||
e2 e2 e2 fe | d2 B2 B3 d | e2 e2 e2 fe | d2 B2 B4 |
d2 d2 e4 | dc B2 A4 | EF GA BA GF | G2 E2 E4 ||
